img/Partners/Client 3.svg

<svg width="170" height="90" fill="none" xmlns="http://www.w3.org/2000/svg"><rect x=".5" y=".5" width="169" height="89" rx="3.5" stroke="#AFB1B8"/><path d="M71.346 65.795a.118.118 0 01.08.034l.205.216c-.16.174-.357.314-.579.409-.26.104-.539.154-.82.147a2.011 2.011 0 01-.772-.137 1.672 1.672 0 01-.957-.986 2.163 2.163 0 01-.13-.767 2.016 2.016 0 01.14-.77c.09-.222.226-.425.4-.597.175-.17.385-.302.617-.39.253-.094.523-.14.794-.137.253-.006.504.036.739.125.203.084.39.2.552.345l-.172.23a.173.173 0 01-.043.042.11.11 0 01-.07.018.157.157 0 01-.075-.025l-.092-.061-.129-.079a1.401 1.401 0 00-.406-.137 1.642 1.642 0 00-.306-.024 1.533 1.533 0 00-.571.102 1.29 1.29 0 00-.448.29c-.128.133-.227.29-.29.46-.073.196-.109.401-.106.608-.003.21.033.42.106.618.062.169.16.325.285.458.118.125.264.222.427.284.168.067.348.1.53.099.105.001.21-.005.314-.02.17-.02.332-.076.475-.164.073-.046.14-.096.204-.152a.153.153 0 01.097-.04zM77.287 64.71c.003.26-.044.52-.139.763a1.655 1.655 0 01-.387.592 1.754 1.754 0 01-.608.388 2.296 2.296 0 01-1.564 0 1.778 1.778 0 01-.605-.39 1.74 1.74 0 01-.39-.597 2.166 2.166 0 010-1.527c.087-.223.22-.427.39-.6a1.78 1.78 0 01.605-.375 2.258 2.258 0 011.564 0c.228.088.435.22.607.39.17.17.301.37.388.59.096.245.143.505.14.767zm-.54 0a1.759 1.759 0 00-.098-.612 1.208 1.208 0 00-.71-.747 1.658 1.658 0 00-1.137 0 1.207 1.207 0 00-.712.747c-.13.4-.13.827 0 1.225a1.203 1.203 0 00.712.745c.367.131.77.131 1.137 0 .166-.063.314-.161.435-.286.123-.134.217-.29.275-.459.07-.197.102-.404.098-.612zM81.34 65.353l.055.137c.02-.049.038-.093.059-.137a1.28 1.28 0 01.067-.135l1.314-2.276c.026-.04.05-.064.075-.071a.323.323 0 01.108-.012h.388v3.702h-.46V63.84v-.115a1.13 1.13 0 010-.128l-1.322 2.309a.202.202 0 01-.078.084.216.216 0 01-.113.03h-.074c-.04.001-.08-.01-.113-.03a.2.2 0 01-.078-.084l-1.36-2.324v2.973h-.445v-3.695h.388a.323.323 0 01.108.012.15.15 0 01.072.071l1.343 2.279a.812.812 0 01.067.132zM86.287 65.17v1.386h-.514V62.86h1.147a2.25 2.25 0 01.64.08c.167.045.321.124.453.23.114.1.202.225.257.363.06.151.09.312.088.473.002.163-.03.323-.096.473a1.013 1.013 0 01-.277.37 1.27 1.27 0 01-.456.245c-.2.061-.41.09-.62.086l-.622-.01zm0-.398h.622c.136.002.27-.017.4-.056a.843.843 0 00.287-.16.651.651 0 00.175-.244.768.768 0 00.062-.312.677.677 0 00-.052-.3.707.707 0 00-.18-.253 1.033 1.033 0 00-.692-.199h-.622v1.524zM93.201 66.561h-.406a.181.181 0 01-.114-.034.226.226 0 01-.066-.086l-.35-.894h-1.757l-.363.894a.2.2 0 01-.064.083.181.181 0 01-.116.037h-.406l1.543-3.703h.535l1.564 3.703zm-2.546-1.375h1.45l-.612-1.507a2.6 2.6 0 01-.116-.348l-.059.194a1.84 1.84 0 01-.056.157l-.607 1.504zM95.423 62.875c.031.017.058.04.078.067l2.25 2.79v-.129-2.745h.46v3.703h-.257a.23.23 0 01-.105-.022.283.283 0 01-.082-.069l-2.248-2.788c.002.042.002.085 0 .127v2.753h-.46v-3.704h.272c.032 0 .063.005.092.017zM102.003 65.088v1.47h-.515v-1.47l-1.422-2.23h.46a.174.174 0 01.111.032.319.319 0 01.07.084l.889 1.438c.036.061.067.118.093.172.026.053.046.105.064.156l.067-.159c.025-.058.054-.115.088-.169l.877-1.448a.362.362 0 01.067-.079.16.16 0 01.11-.036h.466l-1.425 2.24zM81.086 56.644c.224.027.45.05.68.069 3.47-1.48 6.406-3.9 8.44-6.96 2.035-3.06 3.077-6.624 2.998-10.246l-3.825-3.644a20.22 20.22 0 01-1.05 11.512c-1.465 3.67-3.973 6.88-7.243 9.27z" fill="#AFB1B8"/><path d="M79.72 56.475l.103.02c3.495-2.382 6.159-5.707 7.648-9.546a19.54 19.54 0 00.707-11.99l-5.448-5.19a24.082 24.082 0 012.557 13.768c-.532 4.728-2.463 9.214-5.567 12.938zM98.196 43.786c-.925 3.98-3.173 7.568-6.41 10.234a20.218 20.218 0 01-3.045 2.082 18.187 18.187 0 007.08-3.813 17.09 17.09 0 004.585-6.4l-2.21-2.103z" fill="#AFB1B8"/><path d="M97.33 43.2l-3.147-2.997a18.474 18.474 0 01-2.952 9.67c-1.873 2.916-4.532 5.299-7.699 6.903h.016c.706 0 1.41-.04 2.111-.12a19.338 19.338 0 007.611-5.33 18.092 18.092 0 004.06-8.126zM80.176 27.58L76.423 24c-3.355 1.235-6.24 3.406-8.278 6.23-2.038 2.823-3.135 6.167-3.145 9.593.013 3.787 1.35 7.46 3.801 10.441 2.451 2.98 5.875 5.097 9.731 6.015 3.442-3.995 5.457-8.932 5.753-14.093.295-5.161-1.144-10.277-4.11-14.606zM106 42.649c-.014-4.492-1.893-8.797-5.227-11.973-3.334-3.177-7.852-4.967-12.567-4.98-2.179-.002-4.34.381-6.371 1.13l22.977 21.89A16.093 16.093 0 00106 42.65z" fill="#AFB1B8"/></svg>

<svg xmlns="http://www.w3.org/2000/svg" width="170" height="90" viewBox="0 0 170 90" fill="none"><style>.a{fill:#AFB1B8;}</style><rect x="0.5" y="0.5" width="169" height="89" rx="3.5" stroke="#AFB1B8"/><path d="M71.3 65.8C71.4 65.8 71.4 65.8 71.4 65.8 71.4 65.8 71.4 65.8 71.4 65.8L71.6 66C71.5 66.2 71.3 66.4 71.1 66.5 70.8 66.6 70.5 66.6 70.2 66.6 70 66.6 69.7 66.6 69.5 66.5 69.2 66.4 69 66.2 68.9 66.1 68.7 65.9 68.6 65.7 68.5 65.5 68.4 65.2 68.4 65 68.4 64.7 68.4 64.4 68.4 64.2 68.5 63.9 68.6 63.7 68.7 63.5 68.9 63.3 69.1 63.2 69.3 63 69.5 63 69.8 62.9 70.1 62.8 70.3 62.8 70.6 62.8 70.8 62.9 71.1 62.9 71.3 63 71.5 63.1 71.6 63.3L71.4 63.5C71.4 63.5 71.4 63.5 71.4 63.6 71.4 63.6 71.4 63.6 71.3 63.6 71.3 63.6 71.3 63.6 71.3 63.6L71.2 63.5 71 63.4C71 63.4 70.9 63.4 70.9 63.3 70.8 63.3 70.7 63.3 70.6 63.3 70.5 63.3 70.4 63.2 70.3 63.3 70.1 63.2 69.9 63.3 69.8 63.4 69.6 63.4 69.4 63.5 69.3 63.6 69.2 63.8 69.1 63.9 69 64.1 68.9 64.3 68.9 64.5 68.9 64.7 68.9 64.9 68.9 65.1 69 65.3 69.1 65.5 69.2 65.7 69.3 65.8 69.4 65.9 69.6 66 69.7 66.1 69.9 66.1 70.1 66.2 70.3 66.2 70.4 66.2 70.5 66.2 70.6 66.2 70.7 66.1 70.9 66.1 71 66 71.1 65.9 71.2 65.9 71.2 65.8 71.3 65.8 71.3 65.8 71.3 65.8Z" class="a"/><path d="M77.3 64.7C77.3 65 77.2 65.2 77.1 65.5 77.1 65.7 76.9 65.9 76.8 66.1 76.6 66.2 76.4 66.4 76.2 66.5 75.6 66.6 75.1 66.6 74.6 66.5 74.4 66.4 74.2 66.2 74 66.1 73.8 65.9 73.7 65.7 73.6 65.5 73.4 65 73.4 64.4 73.6 63.9 73.7 63.7 73.8 63.5 74 63.3 74.2 63.2 74.4 63 74.6 63 75.1 62.8 75.6 62.8 76.2 63 76.4 63.1 76.6 63.2 76.8 63.4 76.9 63.5 77.1 63.7 77.1 63.9 77.2 64.2 77.3 64.4 77.3 64.7ZM76.7 64.7C76.8 64.5 76.7 64.3 76.6 64.1 76.6 63.9 76.5 63.8 76.4 63.6 76.3 63.5 76.1 63.4 75.9 63.4 75.6 63.2 75.2 63.2 74.8 63.4 74.6 63.4 74.5 63.5 74.4 63.6 74.2 63.8 74.1 63.9 74.1 64.1 74 64.5 74 64.9 74.1 65.3 74.1 65.5 74.2 65.6 74.4 65.8 74.5 65.9 74.6 66 74.8 66.1 75.2 66.2 75.6 66.2 75.9 66.1 76.1 66 76.3 65.9 76.4 65.8 76.5 65.6 76.6 65.5 76.6 65.3 76.7 65.1 76.8 64.9 76.7 64.7Z" class="a"/><path d="M81.3 65.4L81.4 65.5C81.4 65.4 81.4 65.4 81.5 65.4 81.5 65.3 81.5 65.3 81.5 65.2L82.8 62.9C82.9 62.9 82.9 62.9 82.9 62.9 82.9 62.9 83 62.9 83 62.9H83.4V66.6H82.9V63.8C82.9 63.8 82.9 63.8 82.9 63.7 82.9 63.7 82.9 63.6 82.9 63.6L81.6 65.9C81.6 65.9 81.6 66 81.5 66 81.5 66 81.5 66 81.4 66H81.4C81.3 66 81.3 66 81.2 66 81.2 66 81.2 65.9 81.2 65.9L79.8 63.6C79.8 63.6 79.8 63.7 79.8 63.7 79.8 63.8 79.8 63.8 79.8 63.8V66.6H79.4V62.9H79.8C79.8 62.9 79.8 62.9 79.9 62.9 79.9 62.9 79.9 62.9 79.9 62.9L81.3 65.2C81.3 65.3 81.3 65.3 81.3 65.4Z" class="a"/><path d="M86.3 65.2V66.6H85.8V62.9H86.9C87.1 62.9 87.4 62.9 87.6 62.9 87.7 63 87.9 63.1 88 63.2 88.1 63.3 88.2 63.4 88.3 63.5 88.3 63.7 88.4 63.8 88.4 64 88.4 64.2 88.3 64.3 88.3 64.5 88.2 64.6 88.1 64.7 88 64.8 87.9 65 87.7 65 87.5 65.1 87.3 65.2 87.1 65.2 86.9 65.2L86.3 65.2ZM86.3 64.8H86.9C87 64.8 87.2 64.8 87.3 64.7 87.4 64.7 87.5 64.6 87.6 64.6 87.7 64.5 87.7 64.4 87.8 64.3 87.8 64.2 87.8 64.1 87.8 64 87.8 63.9 87.8 63.8 87.8 63.7 87.7 63.6 87.7 63.5 87.6 63.4 87.4 63.3 87.2 63.2 86.9 63.2H86.3V64.8Z" class="a"/><path d="M93.2 66.6H92.8C92.8 66.6 92.7 66.6 92.7 66.5 92.7 66.5 92.6 66.5 92.6 66.4L92.3 65.5H90.5L90.1 66.4C90.1 66.5 90.1 66.5 90.1 66.5 90 66.5 90 66.6 90 66.6H89.6L91.1 62.9H91.6L93.2 66.6ZM90.7 65.2H92.1L91.5 63.7C91.4 63.6 91.4 63.4 91.4 63.3L91.3 63.5C91.3 63.6 91.3 63.6 91.3 63.7L90.7 65.2Z" class="a"/><path d="M95.4 62.9C95.5 62.9 95.5 62.9 95.5 62.9L97.8 65.7C97.8 65.7 97.8 65.6 97.8 65.6 97.8 65.6 97.8 65.5 97.8 65.5V62.9H98.2V66.6H98C97.9 66.6 97.9 66.6 97.8 66.5 97.8 66.5 97.8 66.5 97.8 66.5L95.5 63.7C95.5 63.7 95.5 63.8 95.5 63.8 95.5 63.9 95.5 63.9 95.5 63.9V66.6H95.1V62.9H95.3C95.4 62.9 95.4 62.9 95.4 62.9Z" class="a"/><path d="M102 65.1V66.6H101.5V65.1L100.1 62.9H100.5C100.6 62.9 100.6 62.9 100.6 62.9 100.7 62.9 100.7 62.9 100.7 63L101.6 64.4C101.6 64.5 101.7 64.5 101.7 64.6 101.7 64.6 101.7 64.7 101.8 64.7L101.8 64.6C101.8 64.5 101.9 64.5 101.9 64.4L102.8 63C102.8 62.9 102.8 62.9 102.9 62.9 102.9 62.9 102.9 62.8 103 62.8H103.4L102 65.1Z" class="a"/><path d="M81.1 56.6C81.3 56.7 81.5 56.7 81.8 56.7 85.2 55.2 88.2 52.8 90.2 49.8 92.2 46.7 93.3 43.1 93.2 39.5L89.4 35.9C90.2 39.7 89.8 43.7 88.3 47.4 86.9 51 84.4 54.3 81.1 56.6Z" class="a"/><path d="M79.7 56.5L79.8 56.5C83.3 54.1 86 50.8 87.5 46.9 89 43.1 89.2 38.9 88.2 35L82.7 29.8C84.9 34 85.8 38.8 85.3 43.5 84.8 48.3 82.8 52.8 79.7 56.5Z" class="a"/><path d="M98.2 43.8C97.3 47.8 95 51.4 91.8 54 90.8 54.8 89.8 55.5 88.7 56.1 91.4 55.4 93.8 54.1 95.8 52.3 97.8 50.5 99.4 48.3 100.4 45.9L98.2 43.8Z" class="a"/><path d="M97.3 43.2L94.2 40.2C94.1 43.6 93.1 47 91.2 49.9 89.4 52.8 86.7 55.2 83.5 56.8H83.5C84.3 56.8 85 56.7 85.7 56.7 88.6 55.5 91.2 53.7 93.3 51.3 95.3 49 96.7 46.2 97.3 43.2Z" class="a"/><path d="M80.2 27.6L76.4 24C73.1 25.2 70.2 27.4 68.1 30.2 66.1 33.1 65 36.4 65 39.8V39.8C65 43.6 66.4 47.3 68.8 50.3 71.3 53.2 74.7 55.4 78.5 56.3 82 52.3 84 47.3 84.3 42.2 84.6 37 83.1 31.9 80.2 27.6Z" class="a"/><path d="M106 42.6C106 38.2 104.1 33.9 100.8 30.7 97.4 27.5 92.9 25.7 88.2 25.7 86 25.7 83.9 26.1 81.8 26.8L104.8 48.7C105.6 46.8 106 44.7 106 42.6Z" class="a"/></svg>
